src/components/00-materials/images-raw/Instagram.svg

<svg width="96" height="96" viewBox="0 0 96 96" fill="none" xmlns="http://www.w3.org/2000/svg">
<path d="M48 14C38.77 14 37.61 14 34 14.2C21.64 14.77 14.77 21.62 14.21 34C14 37.61 14 38.77 14 48C14 57.23 14 58.39 14.2 62C14.77 74.37 21.62 81.23 34 81.8C37.63 81.96 38.79 82 48 82C57.21 82 58.39 82 62 81.8C74.36 81.23 81.23 74.38 81.79 62C81.96 58.37 82 57.21 82 48C82 38.79 82 37.61 81.8 34C81.24 21.65 74.38 14.77 62 14.21C58.39 14 57.23 14 48 14ZM66.15 25.77C65.3431 25.77 64.5542 26.0093 63.8833 26.4576C63.2123 26.9059 62.6894 27.5431 62.3806 28.2887C62.0718 29.0342 61.991 29.8545 62.1484 30.646C62.3058 31.4374 62.6944 32.1644 63.265 32.735C63.8356 33.3056 64.5626 33.6942 65.354 33.8516C66.1455 34.009 66.9658 33.9282 67.7113 33.6194C68.4569 33.3106 69.0941 32.7877 69.5424 32.1167C69.9907 31.4458 70.23 30.6569 70.23 29.85C70.23 28.7679 69.8001 27.7302 69.035 26.965C68.2698 26.1999 67.2321 25.77 66.15 25.77V25.77Z" stroke="#00008F" stroke-width="2" stroke-linecap="round" stroke-linejoin="round"/>
<path d="M48 32C44.8355 32 41.7421 32.9384 39.1109 34.6965C36.4797 36.4546 34.4289 38.9534 33.2179 41.8771C32.0069 44.8007 31.6901 48.0177 32.3074 51.1214C32.9248 54.2251 34.4487 57.0761 36.6863 59.3137C38.9239 61.5513 41.7749 63.0752 44.8786 63.6926C47.9823 64.3099 51.1993 63.9931 54.1229 62.7821C57.0466 61.5711 59.5454 59.5203 61.3035 56.8891C63.0616 54.2579 64 51.1645 64 48C64 43.7565 62.3143 39.6869 59.3137 36.6863C56.3131 33.6857 52.2435 32 48 32V32Z" stroke="#00008F" stroke-width="2" stroke-linecap="round" stroke-linejoin="round"/>
<path d="M48 38C46.0222 38 44.0888 38.5865 42.4443 39.6853C40.7998 40.7841 39.5181 42.3459 38.7612 44.1732C38.0043 46.0004 37.8063 48.0111 38.1922 49.9509C38.578 51.8907 39.5304 53.6725 40.9289 55.0711C42.3275 56.4696 44.1093 57.422 46.0491 57.8079C47.9889 58.1937 49.9996 57.9957 51.8268 57.2388C53.6541 56.4819 55.2159 55.2002 56.3147 53.5557C57.4135 51.9112 58 49.9778 58 48C58 45.3478 56.9464 42.8043 55.0711 40.9289C53.1957 39.0536 50.6522 38 48 38V38Z" stroke="#00008F" stroke-width="2" stroke-linecap="round" stroke-linejoin="round"/>
</svg>

<svg width="96" height="96" viewBox="0 0 96 96" fill="none" xmlns="http://www.w3.org/2000/svg"><path d="M48 14c-9.23 0-10.39 0-14 .2-12.36.57-19.23 7.42-19.79 19.8C14 37.61 14 38.77 14 48s0 10.39.2 14c.57 12.37 7.42 19.23 19.8 19.8 3.63.16 4.79.2 14 .2s10.39 0 14-.2c12.36-.57 19.23-7.42 19.79-19.8.17-3.63.21-4.79.21-14s0-10.39-.2-14c-.56-12.35-7.42-19.23-19.8-19.79C58.39 14 57.23 14 48 14zm18.15 11.77a4.08 4.08 0 100 8.16 4.08 4.08 0 000-8.16v0z" stroke="#00008F" stroke-width="2" stroke-linecap="round" stroke-linejoin="round"/><path d="M48 32a16 16 0 100 32 16 16 0 000-32v0z" stroke="#00008F" stroke-width="2" stroke-linecap="round" stroke-linejoin="round"/><path d="M48 38a10 10 0 100 20 10 10 0 000-20v0z" stroke="#00008F" stroke-width="2" stroke-linecap="round" stroke-linejoin="round"/></svg>
